_uploads/pattern-past-left.svg

<svg width="220" height="300" fill="none" xmlns="http://www.w3.org/2000/svg"><path fill-rule="evenodd" clip-rule="evenodd" d="M0 0h100v60H40v40H0V0zm100 100H40v60H0v40h40v-40h40v20H60v20h20v20h20v-20H80v-20h20v-80zm40 0V60h-40v40h40zm20 20h-20v-20h20v20zm0 0v20h20v-20h-20zM220 0h-60v60h60V0z" fill="#000"/><path fill-rule="evenodd" clip-rule="evenodd" d="M120 0h20v20h-20V0zm0 40V20h-20v20h20zm20 0v20h-20V40h20zm0 0V20h20v20h-20zM60 80H40v20H20v20H0v20h20v20h20v-20H20v-20h20v-20h20V80zm20 0H60V60h20v20zm0 0v20h20V80H80zm60 40h-20v20h20v20h-20v20h20v-20h20v20h20v-20h-20v-20h-20v-20zm40 80h-20v20h-20v20h20v-20h20v-20zm-160 0H0v20h20v20h20v20h20v20H40v20h20v-20h20v20h20v-20H80v-20h20v-20H80v20H60v-20H40v-20H20v-20z" fill="#F1F1F1"/></svg>

<svg width="220" height="300" viewBox="0 0 220 300" fill="none" xmlns="http://www.w3.org/2000/svg">
<path fill-rule="evenodd" clip-rule="evenodd" d="M0 0H40H100V60H40V100H0V0ZM100 100H40V160H0V200H40V160H80V180H60V200H80V220H100V200H80V180H100V160V100ZM140 100V60H100V100H140ZM160 120H140V100H160V120ZM160 120V140H180V120H160ZM220 0H160V60H220V0Z" fill="black"/>
<path fill-rule="evenodd" clip-rule="evenodd" d="M120 0H140V20H120V0ZM120 40V20H100V40H120ZM140 40V60H120V40H140ZM140 40V20H160V40H140ZM60 80H40V100H20V120H0V140H20V160H40V140H20V120H40V100H60V80ZM80 80H60V60H80V80ZM80 80V100H100V80H80ZM140 120H120V140H140V160H120V180H140V160H160V180H180V160H160V140H140V120ZM180 200H160V220H140V240H160V220H180V200ZM20 200H0V220H20V240H40V260H60V280H40V300H60V280H80V300H100V280H80V260H100V240H80V260H60V240H40V220H20V200Z" fill="#F1F1F1"/>
</svg>
